X: 16209
T: Greencastle, The
R: hornpipe
M: 4/4
K: Dmajor
F2ED F2ED|d2cd B2AG|F2ED F2ED|G2FG E4|
F2ED F2ED|d2cd B2AG|FAdA BGEC|1 D2DE D4:|2 D2DE D2de||
fedc Bcde|fedc B2cd|edcB ABcd|edcB A4|
d2cA BdAF|GFEF GABc|d2cA BGEC|1 D2DE D2de:|2 D2DE D4||

